!!!!SEGMENT: T698_Cop-w6p4s1.krn
!!!COM: Copland, Aaron
!!!OTL: single movement work
!!!AGN: Vocal
!!!AGN-sub: Solo
!!!CNT: American
!!!ODT: 1928
!!!OPR: Vocalise for High Voice and Piano
!!!filename: T698_Cop-w6p4s1.krn
**kern	**kern	**dynam	**kern	**dynam
*grp:A	*grp:A	*	*grp:B	*
*part2	*part2	*	*part1	*
*staff3	*staff2	*	*staff1	*
*ICklav	*ICklav	*	*ICvox	*
*Ipiano	*Ipiano	*	*Ivox	*
*I"Piano	*I"Piano	*	*I"Voice	*
*I'pf	*I'pf	*	*I'v	*
*clefF4	*clefG2	*	*clefG2	*
*k[]	*k[]	*	*k[]	*
*C:	*C:	*	*C:	*
*M3/4	*M3/4	*	*M3/4	*
=	=	=	=	=
*	*^	*	*	*
!	!	!	!LO:DY:ed=brack	!	!LO:DY:ed=brack
4%3r	2.a	4.f	p	]8ee	pp
.	.	.	.	8r	.
.	.	.	.	(4b-X	<
.	.	8e	.	.	.
.	.	4d)	.	4cc	[[
*	*	*	*	*	*
=	=	=	=	=	=
!	!	!	!	!	!LO:DY:t=più %s
1r	(8fL	4.d-X	<	2ee-X	f
.	8g-X	.	.	.	.
.	8a-X	.	.	.	.
.	8b-X	[4.g-	[ >]	.	.
.	8cc-X	.	.	4dd-X	.
.	[8dd-XJ	.	.	.	.
=-	=-	=-	=-	=	=
.	4dd-])	4g-]	.	2cc-X	.
=	=	=	=	=-	=-
1r	(8fL	4.d-X	<	.	.
.	8g-X	.	.	.	.
.	8a-X	.	.	4g-X	.
.	8b-X	[4.g-	[ >]	.	.
=-	=-	=-	=-	=	=
.	8cc-X	.	.	2dd-X	.
.	[8dd-XJ	.	.	.	.
.	4dd-])	4g-]	.	.	.
=	=	=	=	=-	=-
1r	(8gL	4.e-X	<[	4cc-X	.
.	8a-X	.	.	.	.
!	!LO:TX:a:B:t=Poco rit.	!	!	!LO:TX:a:B:t=Poco rit.	!
=-	=-	=-	=-	=	=
.	8b-X	.	.	2b-X	.
.	8cc	4.a-	>	.	.
.	8dd-X	.	.	.	.
.	8ee-XJ	.	.	.	.
.	8ffL	4dd-	.	4a-X)	.
.	8gg-XJ)	.	]	.	.
*	*v	*v	*	*	*
=	=	=	=	=
*-	*-	*-	*-	*-
!!!system-decoration: s1[({(s2,s3)})]
!!!Suter_Work_ID: Cop-6
!!!Suter_Example_Number: 698
!!!Suter_Example_ID: Cop-6/4/ligne 1
!!!Premiere_Location: New York,United States
!!!Other_Tsigs: 4/4;3/4
!!!Full_Unit_Duration: 3:59
!!!First_Publication_Year: 1929
!!!First_Public_Performance_Year: 1935
!!!Example_Total_Measures: 5
!!!Example_Timestamp_Duration: 10
!!!Example_Start_Tsig_Type: changing
!!!Example_Start_Tsig_Mean_Beat_Rate: 90
!!!Example_Start_Tsig_Beat_Rate: 90
!!!Example_Start_Tsig_Beat: quarter
!!!Example_Start_Tsig: 3/4
!!!Example_Start_Timestamp: 1:29
!!!Example_Start_Tempo_Expression: [Poco meno mosso, Tempo 2°]
!!!Example_Start_Notated_Beat_Rate: {90}
!!!Example_Start_Notated_Beat: {quarter}
!!!Example_Start_Measure: 31
!!!Example_Metadata_Validated: Y
!!!Example_End_Timestamp: 1:39
!!!Example_End_Measure: 35
!!!Example_Dataset: T
!!!Editorial_Comments: No notated tempo. Example Start Notated Beat and Example Start Notated Beat Rate {quarter=90} calculated from recording (https://ubc-nml3-naxosmusiclibrary-com.eu1.proxy.openathens.net/catalogue/item.asp?cid=SYMP1430); tempo for audio synthesis {quarter=80} was calculated using a Digital Audio Workstation (DAW). Example Start Tempo Expression [Poco meno mosso, Tempo 2°] based on most recent notated tempo expression (SWFU, m. 25).
!!!Death_Place: North Tarrytown,United States
!!!Death_Date: 2-Dec-1990
!!!Changing_Tsig: yes
!!!Birth_Place: Brooklyn,United States
!!!Birth_Date: 14-Nov-1900
!!!Audio_Example_Quarter_Note_Tempo:
!!!Audio_Example_Duration:
!!!YEM: Copyright © Natalie Dietterich
